svg/300/outlined/other_houses.svg

<svg xmlns="http://www.w3.org/2000/svg" width="48" height="48" viewBox="0 -960 960 960"><path d="M180.001-140.001v-389.461l-83.615 64-27.153-36.076L480-814.998l410.767 314.075-27.153 35.461-83.615-64v389.461H180.001Zm45.384-45.384h509.23v-378.538L480-758.076 225.385-563.923v378.538Zm0 0h509.23-509.23ZM320-364.616q-14.692 0-25.038-10.346T284.616-400q0-14.692 10.346-25.038T320-435.384q14.692 0 25.038 10.346T355.384-400q0 14.692-10.346 25.038T320-364.616Zm160 0q-14.692 0-25.038-10.346T444.616-400q0-14.692 10.346-25.038T480-435.384q14.692 0 25.038 10.346T515.384-400q0 14.692-10.346 25.038T480-364.616Zm160 0q-14.692 0-25.038-10.346T604.616-400q0-14.692 10.346-25.038T640-435.384q14.692 0 25.038 10.346T675.384-400q0 14.692-10.346 25.038T640-364.616Z"/></svg>

<svg xmlns="http://www.w3.org/2000/svg" width="48" height="48" viewBox="0 -960 960 960"><path d="M180-140v-389.46l-83.61 64-27.16-36.08L480-815l410.77 314.08-27.16 35.46-83.61-64V-140H180Zm45.39-45.39h509.22v-378.53L480-758.08 225.39-563.92v378.53Zm0 0h509.22-509.22ZM320-364.62q-14.69 0-25.04-10.34-10.34-10.35-10.34-25.04t10.34-25.04q10.35-10.34 25.04-10.34t25.04 10.34q10.34 10.35 10.34 25.04t-10.34 25.04q-10.35 10.34-25.04 10.34Zm160 0q-14.69 0-25.04-10.34-10.34-10.35-10.34-25.04t10.34-25.04q10.35-10.34 25.04-10.34t25.04 10.34q10.34 10.35 10.34 25.04t-10.34 25.04q-10.35 10.34-25.04 10.34Zm160 0q-14.69 0-25.04-10.34-10.34-10.35-10.34-25.04t10.34-25.04q10.35-10.34 25.04-10.34t25.04 10.34q10.34 10.35 10.34 25.04t-10.34 25.04q-10.35 10.34-25.04 10.34Z"/></svg>
